icons/brave-dark.svg

<svg width="256" height="256" viewBox="0 0 256 256" fill="none" xmlns="http://www.w3.org/2000/svg">
<path d="M196 0H60C26.8629 0 0 26.8629 0 60V196C0 229.137 26.8629 256 60 256H196C229.137 256 256 229.137 256 196V60C256 26.8629 229.137 0 196 0Z" fill="#282828"/>
<g clip-path="url(#clip0_139_17)">
<path fill-rule="evenodd" clip-rule="evenodd" d="M208.657 75.0757L213.461 63.2991C213.461 63.2991 207.347 56.7565 199.923 49.3416C192.499 41.9268 176.778 46.2885 176.778 46.2885L158.873 26H127.431H95.989L78.0845 46.2885C78.0845 46.2885 62.3634 41.9268 54.9395 49.3416C47.5157 56.7565 41.4019 63.2991 41.4019 63.2991L46.2056 75.0757L40.0918 92.5225C40.0918 92.5225 58.0728 160.545 60.1799 168.852C64.3285 185.209 67.167 191.533 78.9579 199.82C90.7487 208.108 112.147 222.501 115.64 224.682C119.134 226.863 123.501 230.578 127.431 230.578C131.362 230.578 135.728 226.863 139.222 224.682C142.716 222.501 164.114 208.108 175.905 199.82C187.695 191.533 190.534 185.209 194.683 168.852C196.789 160.545 214.771 92.5225 214.771 92.5225L208.657 75.0757Z" fill="url(#paint0_linear_139_17)"/>
<path fill-rule="evenodd" clip-rule="evenodd" d="M171.756 59.1556C171.756 59.1556 194.786 86.9614 194.786 92.9043C194.786 98.8471 191.889 100.416 188.976 103.505C186.063 106.594 173.342 120.087 171.708 121.819C170.074 123.552 166.673 126.179 168.674 130.908C170.674 135.636 173.626 141.653 170.344 147.756C167.062 153.859 161.439 157.932 157.836 157.259C154.234 156.585 145.773 152.169 142.661 150.152C139.55 148.134 129.688 140.011 129.688 136.903C129.688 133.795 139.882 128.215 141.765 126.947C143.649 125.679 152.239 120.772 152.415 118.846C152.59 116.919 152.524 116.355 149.989 111.595C147.453 106.835 142.888 100.484 143.648 96.2575C144.408 92.0319 151.771 89.8345 157.025 87.8525C162.278 85.871 172.395 82.1282 173.658 81.5464C174.922 80.9641 174.596 80.4097 170.767 80.0473C166.939 79.6848 156.076 78.2446 151.179 79.6081C146.281 80.9715 137.914 83.0459 137.236 84.146C136.558 85.246 135.96 85.2831 136.657 89.0777C137.352 92.8724 140.936 111.081 141.283 114.315C141.631 117.549 142.312 119.687 138.82 120.485C135.329 121.282 129.451 122.666 127.431 122.666C125.412 122.666 119.534 121.282 116.042 120.485C112.55 119.687 113.231 117.549 113.579 114.315C113.927 111.081 117.51 92.8724 118.206 89.0777C118.902 85.2831 118.304 85.246 117.627 84.146C116.949 83.0459 108.581 80.9715 103.684 79.6081C98.7862 78.2446 87.9233 79.6848 84.0953 80.0473C80.2672 80.4097 79.9405 80.9641 81.2043 81.5464C82.4681 82.1282 92.5842 85.871 97.8377 87.8525C103.092 89.8345 110.455 92.0319 111.215 96.2575C111.974 100.484 107.409 106.835 104.874 111.595C102.339 116.355 102.272 116.919 102.448 118.846C102.623 120.772 111.214 125.679 113.097 126.947C114.981 128.215 125.174 133.795 125.174 136.903C125.174 140.011 115.313 148.134 112.202 150.152C109.09 152.169 100.629 156.585 97.0263 157.259C93.4235 157.932 87.8011 153.859 84.5189 147.756C81.2371 141.653 84.1883 135.636 86.1883 130.908C88.1889 126.179 84.7883 123.552 83.1542 121.819C81.5209 120.087 68.7991 106.594 65.8863 103.505C62.9735 100.416 60.0769 98.8471 60.0769 92.9043C60.0769 86.9614 83.1066 59.1556 83.1066 59.1556C83.1066 59.1556 102.54 62.863 105.16 62.863C107.78 62.863 113.457 60.6822 118.697 58.9375C123.938 57.1928 127.431 57.1802 127.431 57.1802C127.431 57.1802 130.925 57.1928 136.165 58.9375C141.406 60.6822 147.083 62.863 149.703 62.863C152.323 62.863 171.756 59.1556 171.756 59.1556ZM154.492 165.518C155.917 166.41 155.048 168.091 153.749 169.007C152.451 169.924 135 183.421 133.306 184.913C131.612 186.405 129.123 188.869 127.431 188.869C125.739 188.869 123.25 186.405 121.556 184.913C119.862 183.421 102.412 169.924 101.113 169.007C99.8145 168.091 98.9455 166.41 100.371 165.518C101.797 164.627 106.257 162.378 112.411 159.197C118.565 156.017 126.234 153.312 127.431 153.312C128.628 153.312 136.298 156.017 142.452 159.197C148.606 162.378 153.066 164.627 154.492 165.518Z" fill="white"/>
<path d="M176.778 46.2886L158.874 26.0001H127.431H95.9891L78.0845 46.2886C78.0845 46.2886 62.3634 41.9269 54.9396 49.3418C54.9396 49.3418 75.901 47.4518 83.1066 59.1556C83.1066 59.1556 102.54 62.863 105.16 62.863C107.78 62.863 113.457 60.6822 118.697 58.9375C123.938 57.1928 127.431 57.1802 127.431 57.1802C127.431 57.1802 130.925 57.1928 136.165 58.9375C141.406 60.6822 147.083 62.863 149.703 62.863C152.323 62.863 171.756 59.1556 171.756 59.1556C178.962 47.4518 199.923 49.3418 199.923 49.3418C192.499 41.9269 176.778 46.2886 176.778 46.2886Z" fill="url(#paint1_linear_139_17)"/>
</g>
<defs>
<linearGradient id="paint0_linear_139_17" x1="40.0918" y1="10399.2" x2="17508" y2="10399.2" gradientUnits="userSpaceOnUse">
<stop stop-color="#FF5500"/>
<stop offset="0.409877" stop-color="#FF5500"/>
<stop offset="0.581981" stop-color="#FF2000"/>
<stop offset="1" stop-color="#FF2000"/>
</linearGradient>
<linearGradient id="paint1_linear_139_17" x1="366.428" y1="1895.15" x2="14553.3" y2="1895.15" gradientUnits="userSpaceOnUse">
<stop stop-color="#FF452A"/>
<stop offset="1" stop-color="#FF2000"/>
</linearGradient>
<clipPath id="clip0_139_17">
<rect width="175" height="205" fill="white" transform="translate(40 26)"/>
</clipPath>
</defs>
</svg>

<svg xmlns="http://www.w3.org/2000/svg" width="256" height="256" fill="none"><path fill="#282828" d="M196 0H60C26.863 0 0 26.863 0 60v136c0 33.137 26.863 60 60 60h136c33.137 0 60-26.863 60-60V60c0-33.137-26.863-60-60-60"/><g clip-path="url(#clip0_139_17)"><path fill="url(#paint0_linear_139_17)" fill-rule="evenodd" d="m208.657 75.076 4.804-11.777s-6.114-6.542-13.538-13.957-23.145-3.053-23.145-3.053L158.873 26H95.989L78.085 46.289s-15.722-4.362-23.145 3.053c-7.424 7.415-13.538 13.957-13.538 13.957l4.804 11.777-6.114 17.447s17.98 68.022 20.088 76.329c4.149 16.357 6.987 22.681 18.778 30.968 11.79 8.288 33.189 22.681 36.682 24.862s7.861 5.896 11.791 5.896 8.297-3.715 11.791-5.896 24.892-16.574 36.683-24.862c11.79-8.287 14.629-14.611 18.778-30.968 2.106-8.307 20.088-76.33 20.088-76.33z" clip-rule="evenodd"/><path fill="#fff" fill-rule="evenodd" d="M171.756 59.156s23.03 27.805 23.03 33.748-2.897 7.512-5.81 10.601l-17.268 18.314c-1.634 1.733-5.035 4.36-3.034 9.089 2 4.728 4.952 10.745 1.67 16.848s-8.905 10.176-12.508 9.503c-3.602-.674-12.063-5.09-15.175-7.107s-12.973-10.141-12.973-13.249 10.194-8.688 12.077-9.956c1.884-1.268 10.474-6.175 10.65-8.101.175-1.927.109-2.491-2.426-7.251s-7.101-11.111-6.341-15.338c.76-4.225 8.123-6.422 13.377-8.404 5.253-1.982 15.37-5.725 16.633-6.307 1.264-.582.938-1.136-2.891-1.499-3.828-.362-14.691-1.802-19.588-.439-4.898 1.364-13.265 3.438-13.943 4.538s-1.276 1.137-.579 4.932c.695 3.794 4.279 22.003 4.626 25.237s1.029 5.372-2.463 6.17c-3.491.797-9.369 2.181-11.389 2.181s-7.897-1.384-11.389-2.181-2.811-2.936-2.463-6.17 3.931-21.443 4.627-25.237c.696-3.795.098-3.832-.579-4.932-.678-1.1-9.046-3.174-13.943-4.538-4.898-1.363-15.76.077-19.589.44-3.828.362-4.154.916-2.89 1.498s11.38 4.325 16.633 6.307c5.254 1.982 12.617 4.179 13.377 8.404.759 4.227-3.806 10.578-6.341 15.338s-2.602 5.324-2.426 7.251c.175 1.926 8.766 6.833 10.649 8.101 1.884 1.268 12.077 6.848 12.077 9.956s-9.861 11.231-12.972 13.249c-3.112 2.017-11.573 6.433-15.176 7.107-3.602.673-9.225-3.4-12.507-9.503s-.33-12.12 1.67-16.848c2-4.729-1.4-7.356-3.035-9.089l-17.268-18.314c-2.912-3.089-5.81-4.658-5.81-10.6 0-5.944 23.03-33.75 23.03-33.75s19.434 3.708 22.054 3.708 8.297-2.18 13.537-3.925 8.734-1.758 8.734-1.758 3.494.013 8.734 1.758c5.241 1.744 10.918 3.925 13.538 3.925s22.053-3.707 22.053-3.707m-17.264 106.362c1.425.892.556 2.573-.743 3.489-1.298.917-18.749 14.414-20.443 15.906s-4.183 3.956-5.875 3.956-4.181-2.464-5.875-3.956-19.144-14.989-20.443-15.906-2.168-2.597-.742-3.489 5.886-3.14 12.04-6.321 13.823-5.885 15.02-5.885 8.867 2.705 15.021 5.885c6.154 3.181 10.614 5.43 12.04 6.321" clip-rule="evenodd"/><path fill="url(#paint1_linear_139_17)" d="M176.778 46.289 158.874 26H95.989L78.085 46.29s-15.722-4.362-23.145 3.053c0 0 20.961-1.89 28.167 9.814 0 0 19.433 3.707 22.053 3.707s8.297-2.18 13.537-3.925 8.734-1.758 8.734-1.758 3.494.013 8.734 1.758c5.241 1.744 10.918 3.925 13.538 3.925s22.053-3.707 22.053-3.707c7.206-11.704 28.167-9.814 28.167-9.814-7.424-7.415-23.145-3.053-23.145-3.053"/></g><defs><linearGradient id="paint0_linear_139_17" x1="40.092" x2="17508" y1="10399.2" y2="10399.2" gradientUnits="userSpaceOnUse"><stop stop-color="#F50"/><stop offset=".41" stop-color="#F50"/><stop offset=".582" stop-color="#FF2000"/><stop offset="1" stop-color="#FF2000"/></linearGradient><linearGradient id="paint1_linear_139_17" x1="366.428" x2="14553.3" y1="1895.15" y2="1895.15" gradientUnits="userSpaceOnUse"><stop stop-color="#FF452A"/><stop offset="1" stop-color="#FF2000"/></linearGradient><clipPath id="clip0_139_17"><path fill="#fff" d="M40 26h175v205H40z"/></clipPath></defs></svg>
